X:0908
T:The Braes of Busby
P:The Braes of Busby
C:Joseph MacFadyen's Coll. 1795
R:Strathspey (8x32)
B:RSCDS 9-8
Z:Anselm Lingnau <anselm@strathspey.org>
M:4/4
L:1/8
K:Gm
|:F|"Gm"D<G G>A B>A G>F|"F"C<F F>G Ac B/A/G/F/|\
    "Gm"G>A B>c d>c B>d|"F"c/B/A/G/ F>A "Gm"B<G G:|
|:A|"Bb"B>c d>B f>B d>B|"F"A>c f>d c>A F>A|\
    "Bb"B>c d>B f>B d>B|"F"c<A F>A "Gm"B<G G:|
|:f|"Gm"g2 B>g dg/a/ b>g|"F"f2 c>f cf/g/ a>f|\
    "Gm"g2 d>g d>c B>d|"F"c/B/A/G/ F>A "Gm"B<G G:|
  A|"Gm"B<d G>B GB/c/ d>B|"F"A<c F>A FA/B/ c>A|\
    "Gm"B<d G>B GB/c/ d>B|"F"c<A F>A B<G GA|
    "Gm"B<d G>B GB/c/ d>B|"F"A<c F>A FA/B/ c>A|\
    "Bb"B>d f<b f<d B>d|"F"c/B/A/G/ F>A "Gm"B<G G|]

